!!!COM: Mozart, Wolfgang Amadeus
!!!OTL: Musikalische Würfelspiele, Kontre-Tänze
!!!SCA: K<sup>6</sup> Anh. C30.01 (K<sup>3</sup> Anh. 294d)
**kern	**kern
*staff2	*staff2
*clefF4	*clefG2
*M2/4	*M2/4
*MM110	*MM110
*>[A,A1,A,A2,B]	*>[A,A1,A,A2,B]
*>norep[A,A2,B]	*>norep[A,A2,B]
*>A	*>A
=165	=165
4C	8cc
.	16ee
.	16cc
4r	8g
.	8g
=152	=152
4C	8gg
.	16ccc
.	16gg
4r	8ee
.	8cc
=160	=160
16GG	8dd
16BB	.
16D	8b
16BB	.
4GG	16g
.	16b
.	16dd
.	16b
=122	=122
4C	8cc
.	8g
4CC	8e
.	8c
=117	=117
16D	8aa
16A	.
16F#	4ff#
16A	.
16D	.
16A	.
16F#	8dd
16A	.
=27	=27
4BB 4G	16aaQ
.	16gg
.	16ff#
.	16gg
4BB	16dd
.	16gg
.	16dd
.	16b
=132	=132
16C	8ee
16A	.
16F#	4cc
16A	.
16AA	.
16D	.
16C	16a
16D	16f#
=172	=172
*>A1	*>A1
4GG	4g 4b 4gg
16G	4r
16F	.
16E	.
16D	.
=172:|!	=172:|!
*>A2	*>A2
4GG	4g 4b 4gg
16GG	4r
16AA	.
16BB	.
16C#	.
=4||	=4||
*>B	*>B
4D	8d
.	8dd
4C 4D	8ff#
.	8aa
=91	=91
16BB	4gg
16D	.
16G	.
16D	.
16BB	8bb
16GG	.
16AA	8r
16BB	.
=26	=26
4C	8ee
.	8cc
4C	8gg
.	8ee
=107	=107
16BB	8dd
16D	.
16G	4b
16D	.
16G	.
16F	.
16E	8g
16D	.
=75	=75
16C	4cc
16GG	.
16AA	.
16BB	.
16C	8cc
16GG	.
16AA	8cc
16BB	.
=88	=88
4C	8cc
.	16ee
.	16gg
4r	16ccc
.	16gg
.	16ee
.	16cc
=159	=159
4G	8dd
.	4ff
4GG	.
.	16dd
.	16b
=127	=127
4C	4cc
4CC	4c
==	==
*-	*-
